blockchains/ethereum/assets/0xE5a3229CCb22b6484594973A03a3851dCd948756/logo.svg

<svg fill="none" height="250" viewBox="0 0 250 250" width="250" xmlns="http://www.w3.org/2000/svg" xmlns:xlink="http://www.w3.org/1999/xlink"><clipPath id="a"><path d="m0 0h250v250h-250z"/></clipPath><g clip-path="url(#a)"><circle cx="125" cy="125" fill="#fff" r="125"/><g fill="#21242f"><path d="m207.002 94.6208-59.468-31.7872c-1.274-.6856-2.918-.2805-3.656.9038-.436.6856-.469 1.527-.134 2.2749l24.418 50.5787c.603 1.247 2.18 1.808 3.521 1.247.068-.031.168-.062.235-.125l35.084-18.7916c1.274-.6856 1.71-2.2127.972-3.3969-.234-.374-.57-.6856-.972-.9037z"/><path d="m81.8666 116.57 24.3804-50.5464c.604-1.2457 0-2.7095-1.341-3.3012-.772-.3426-1.711-.2803-2.448.1245l-59.4597 31.7978c-1.2744.7163-1.7103 2.2423-.9726 3.4258.2348.3737.5702.6851.9726.9032l35.1122 18.7483c1.2744.685 2.9177.28 3.6555-.903.0335-.093.067-.156.1006-.249z"/><path d="m123.001 190.607-25.5771-62.219c-.2686-.65-.2686-1.431 0-2.081l25.5771-62.2518c.537-1.3009 1.94-1.9189 3.133-1.3334.537.2601.985.748 1.224 1.3334l25.219 62.4138c.268.651.268 1.431 0 2.082l-25.219 62.023c-.537 1.301-1.94 1.919-3.164 1.334-.537-.26-.955-.716-1.193-1.301z"/></g></g></svg>

<svg width="250" height="250" viewBox="0 0 250 250" fill="none" xmlns="http://www.w3.org/2000/svg">
<g clip-path="url(#clip0_37_33993)">
<circle cx="125" cy="125" r="125" fill="white"/>
<path d="M207.002 94.6208L147.534 62.8336C146.26 62.148 144.616 62.5531 143.878 63.7374C143.442 64.423 143.409 65.2644 143.744 66.0123L168.162 116.591C168.765 117.838 170.342 118.399 171.683 117.838C171.751 117.807 171.851 117.776 171.918 117.713L207.002 98.9214C208.276 98.2358 208.712 96.7087 207.974 95.5245C207.74 95.1505 207.404 94.8389 207.002 94.6208Z" fill="#21242F"/>
<path d="M81.8666 116.57L106.247 66.0236C106.851 64.7779 106.247 63.3141 104.906 62.7224C104.134 62.3798 103.195 62.4421 102.458 62.8469L42.9983 94.6447C41.7239 95.361 41.288 96.887 42.0257 98.0705C42.2605 98.4442 42.5959 98.7556 42.9983 98.9737L78.1105 117.722C79.3849 118.407 81.0282 118.002 81.766 116.819C81.7995 116.726 81.833 116.663 81.8666 116.57Z" fill="#21242F"/>
<path d="M123.001 190.607L97.4239 128.388C97.1553 127.738 97.1553 126.957 97.4239 126.307L123.001 64.0552C123.538 62.7543 124.941 62.1363 126.134 62.7218C126.671 62.9819 127.119 63.4698 127.358 64.0552L152.577 126.469C152.845 127.12 152.845 127.9 152.577 128.551L127.358 190.574C126.821 191.875 125.418 192.493 124.194 191.908C123.657 191.648 123.239 191.192 123.001 190.607Z" fill="#21242F"/>
</g>
<defs>
<clipPath id="clip0_37_33993">
<rect width="250" height="250" fill="white"/>
</clipPath>
</defs>
</svg>
